P3
# 2x2-aligned screen, partial spill, opaque green fringe, and opaque teal edge/core.
12 10
255
0 255 0   0 255 0   8 246 11   8 246 11   14 246 5   14 246 5   35 221 24   35 221 24   14 246 5   14 246 5   8 246 11   8 246 11
0 255 0   0 255 0   8 246 11   8 246 11   14 246 5   14 246 5   35 221 24   35 221 24   14 246 5   14 246 5   8 246 11   8 246 11
35 221 24   35 221 24   0 96 96   0 96 96   80 140 50   80 140 50   190 160 140   190 160 140   50 140 45   50 140 45   35 221 24   35 221 24
35 221 24   35 221 24   0 96 96   0 96 96   80 140 50   80 140 50   190 160 140   190 160 140   50 140 45   50 140 45   35 221 24   35 221 24
35 221 24   35 221 24   0 96 96   0 96 96   0 110 110   0 110 110   45 52 58   45 52 58   50 140 45   50 140 45   35 221 24   35 221 24
35 221 24   35 221 24   0 96 96   0 96 96   0 110 110   0 110 110   45 52 58   45 52 58   50 140 45   50 140 45   35 221 24   35 221 24
35 221 24   35 221 24   0 96 96   0 96 96   0 110 110   0 110 110   45 52 58   45 52 58   50 140 45   50 140 45   35 221 24   35 221 24
35 221 24   35 221 24   0 96 96   0 96 96   0 110 110   0 110 110   45 52 58   45 52 58   50 140 45   50 140 45   35 221 24   35 221 24
0 255 0   0 255 0   8 246 11   8 246 11   14 246 5   14 246 5   35 221 24   35 221 24   14 246 5   14 246 5   8 246 11   8 246 11
0 255 0   0 255 0   8 246 11   8 246 11   14 246 5   14 246 5   35 221 24   35 221 24   14 246 5   14 246 5   8 246 11   8 246 11
